X: 5
T:Gallowglas
S:Jacky Daly
P:2
M:6/8
L:1/8
Q:200
K:BMinor
|:EF| GFE BFA| GEE E2 F| GFE Bcd| AFD DEF| GFE BFA|GFE B2 A|
GFE DEF| GEE E2 B:|| ~e3 B2 A| GEE E2 F| GFE Bcd| AFD DEE|
~e3 B2 A| GFE B2 A|GFE DEF| GEE E2 B| ~e3 B2 A| GEE E2 F|
GFE Bcd| AFD DEE|eBd cAF| BGE FDB,| EFG BFA| GEE E3|
